icons/outline/filter-2-cog.svg

<svg width="24" height="24" viewBox="0 0 24 24" fill="none" xmlns="http://www.w3.org/2000/svg">
<path d="M4 6H20" stroke="black" stroke-width="2" stroke-linecap="round" stroke-linejoin="round"/>
<path d="M6 12H18" stroke="black" stroke-width="2" stroke-linecap="round" stroke-linejoin="round"/>
<path d="M9 18H12" stroke="black" stroke-width="2" stroke-linecap="round" stroke-linejoin="round"/>
<path d="M19.001 21C18.4706 21 17.9619 20.7893 17.5868 20.4142C17.2117 20.0391 17.001 19.5304 17.001 19C17.001 18.4696 17.2117 17.9609 17.5868 17.5858C17.9619 17.2107 18.4706 17 19.001 17M19.001 21C19.5314 21 20.0401 20.7893 20.4152 20.4142C20.7903 20.0391 21.001 19.5304 21.001 19C21.001 18.4696 20.7903 17.9609 20.4152 17.5858C20.0401 17.2107 19.5314 17 19.001 17M19.001 21V22.5M19.001 17V15.5M22.032 17.25L20.733 18M17.27 20L15.97 20.75M15.97 17.25L17.27 18M20.733 20L22.033 20.75" stroke="black" stroke-width="2" stroke-linecap="round" stroke-linejoin="round"/>
</svg>

<!--
category: Sytem
-->
<svg
  xmlns="http://www.w3.org/2000/svg"
  width="24"
  height="24"
  viewBox="0 0 24 24"
  fill="none"
  stroke="currentColor"
  stroke-width="2"
  stroke-linecap="round"
  stroke-linejoin="round"
>
  <path d="M4 6h16" stroke="black" stroke-width="2" stroke-linecap="round" stroke-linejoin="round" />
  <path d="M6 12h12" stroke="black" stroke-width="2" stroke-linecap="round" stroke-linejoin="round" />
  <path d="M9 18h3" stroke="black" stroke-width="2" stroke-linecap="round" stroke-linejoin="round" />
  <path d="M19.001 21c-.53 0 -1.039 -.211 -1.414 -.586c-.375 -.375 -.586 -.884 -.586 -1.414c0 -.53 .211 -1.039 .586 -1.414c.375 -.375 .884 -.586 1.414 -.586m0 4c.53 0 1.039 -.211 1.414 -.586c.375 -.375 .586 -.884 .586 -1.414c0 -.53 -.211 -1.039 -.586 -1.414c-.375 -.375 -.884 -.586 -1.414 -.586m0 4v1.5m0 -5.5v-1.5m3.031 1.75l-1.299 .75m-3.463 2l-1.3 .75m0 -3.5l1.3 .75m3.463 2l1.3 .75" stroke="black" stroke-width="2" stroke-linecap="round" stroke-linejoin="round" />
</svg>
